X: 18042
T: Humours Of Ardnaree, The
R: jig
M: 6/8
K: Eminor
|:G|AGE E2D|EGE E2D|AGE E2D|GAB c3|
BGE E2D|EGE E2D|GAB c2A|BGE G2:|
|:e|dBd ege|dBG AGE|dBd ege|dBG A3|
def gfe|dBG AGE|GAB c2A|BGE E2:|

